modules/hawcons-stroke/icons/icon-62-document-table.svg

<?xml version="1.0" encoding="UTF-8" standalone="no"?>
<svg width="32px" height="32px" viewBox="0 0 32 32" version="1.1" xmlns="http://www.w3.org/2000/svg" xmlns:xlink="http://www.w3.org/1999/xlink" xmlns:sketch="http://www.bohemiancoding.com/sketch/ns">
    <!-- Generator: Sketch 3.0.3 (7891) - http://www.bohemiancoding.com/sketch -->
    <title>icon 62 document table</title>
    <desc>Created with Sketch.</desc>
    <defs></defs>
    <g id="Page-1" stroke="none" stroke-width="1" fill="none" fill-rule="evenodd" sketch:type="MSPage">
        <g id="icon-62-document-table" sketch:type="MSArtboardGroup" fill="#929292">
            <path d="M16,21 L12,21 L12,23 L12,23 L16,23 L16,21 L16,21 Z M17,21 L21,21 L21,23 L17,23 L17,21 L17,21 Z M16,26 L12,26 L12,24 L16,24 L16,26 L16,26 Z M17,26 L21,26 L21,24 L17,24 L17,26 L17,26 Z M16,18 L12,18 L12,20 L12,20 L16,20 L16,18 L16,18 Z M17,18 L21,18 L21,20 L17,20 L17,18 L17,18 Z M16,15 L12,15 L12,17 L12,17 L16,17 L16,15 L16,15 Z M17,15 L21,15 L21,17 L17,17 L17,15 L17,15 Z M19.5,3 L9.00276013,3 C7.89666625,3 7,3.89833832 7,5.00732994 L7,27.9926701 C7,29.1012878 7.89092539,30 8.99742191,30 L24.0025781,30 C25.1057238,30 26,29.1017876 26,28.0092049 L26,10.5 L26,10 L20,3 L19.5,3 L19.5,3 L19.5,3 Z M19,4 L8.9955775,4 C8.44573523,4 8,4.45526288 8,4.99545703 L8,28.004543 C8,28.5543187 8.45470893,29 8.9999602,29 L24.0000398,29 C24.5523026,29 25,28.5550537 25,28.0066023 L25,11 L20.9979131,11 C19.8944962,11 19,10.1134452 19,8.99408095 L19,4 L19,4 Z M20,4.5 L20,8.99121523 C20,9.54835167 20.4506511,10 20.9967388,10 L24.6999512,10 L20,4.5 L20,4.5 Z M11,13 L11,27 L22,27 L22,13 L11,13 L11,13 Z" id="document-table" sketch:type="MSShapeGroup"></path>
        </g>
    </g>
</svg>

<svg width="32" height="32" xmlns="http://www.w3.org/2000/svg"><path d="M16 21h-4v2h4v-2zm1 0h4v2h-4v-2zm-1 5h-4v-2h4v2zm1 0h4v-2h-4v2zm-1-8h-4v2h4v-2zm1 0h4v2h-4v-2zm-1-3h-4v2h4v-2zm1 0h4v2h-4v-2zm2.5-12H9.003A2.005 2.005 0 0 0 7 5.007v22.986A2 2 0 0 0 8.997 30h15.006A1.999 1.999 0 0 0 26 28.01V10l-6-7h-.5zM19 4H8.996C8.446 4 8 4.455 8 4.995v23.01c0 .55.455.995 1 .995h15c.552 0 1-.445 1-.993V11h-4.002A1.995 1.995 0 0 1 19 8.994V4zm1 .5v4.491c0 .557.45 1.009.997 1.009H24.7L20 4.5zM11 13v14h11V13H11z" fill="#929292" fill-rule="evenodd"/></svg>
